X:1
T:Braes of Auchentyre -- Reel
R:reel
N:315
B:Ryan's Mammoth Collection
O:SCOTCH.
Z:Contributed by Ray Davies,  ray:davies99.freeserve.co.uk
M:2/4
L:1/16
K:C
v(3.C.C.Cu.C2 v(EG)u.G2 | cd"4"ed cAAG | v(3.A.A.Au(AG) .A2.a2 |\
 gecd "4"(ed).d2 |
(3.C.C.C.C2 (EG).G2 | cd"4"ed cAAG | v((3ABc)(Gc) FdEc |\
 edcB c2z2 :|
|:{e}vg3ua gedc | fedc eccG | v(3.A.A.Au(AG) .A2.a2 |\
 gecd "4"(ed).d2 |
egga gedc | fedc eccG | v((3ABc)u(Gc) FdEc | edcB c2 [C2z2] :|
